svgs/zoiper.svg

<svg width="192" height="192" viewBox="0 0 192 192" fill="none" xmlns="http://www.w3.org/2000/svg"><path d="M94.0108 159.227C93.6876 159.296 93.3659 159.318 93.0356 159.318H69.7012C69.4101 159.318 69.1177 159.342 68.8282 159.373C61.3445 160.168 55.6658 152.95 55.501 143.611C54.6398 135.254 58.257 121.713 59.2333 116.723C59.3242 116.258 59.4667 115.813 59.5979 115.358C60.7363 111.411 58.7377 104.503 56.445 103.669C54.3377 102.901 49.7306 104.333 44.6838 99.7397C44.4685 99.5436 44.2404 99.3577 44.0136 99.1751C39.0726 95.1986 38.6044 84.5568 43.487 80.293C48.295 75.511 63.965 60.223 74.952 49.297C85.943 38.371 94.066 36.148 98.112 36.148H120.686C125.664 36.148 137.926 37.478 148.993 45.416C160.319 53.539 170.254 68.56 169.995 94.206C169.877 105.854 167.516 114.467 163.855 120.876C156.78 133.259 145.035 137.161 136.443 137.045C132.606 137.006 129.66 136.869 127.684 136.743C125.83 136.625 123.999 137.284 122.672 138.585C117.317 143.836 102.845 157.358 94.0108 159.227Z" stroke="black" stroke-width="12" stroke-miterlimit="6" stroke-linecap="round" stroke-linejoin="round"/><path d="M151.5 38.79C150.452 37.744 144.958 34.517 141.821 33.075C138.68 31.638 137.216 33.261 136.468 34.752C135.838 36.0083 122.564 62.6801 118.386 71.0765C117.594 72.6681 116.123 73.7819 114.455 74.3955C107.175 77.0724 100.85 83.3966 100.85 92.217C100.85 99.868 104.502 106.114 110.83 109.459L115.426 111.195C116.931 111.562 118.509 111.802 120.131 111.761C130.746 111.498 138.617 102.968 138.617 91.954C138.617 89.3859 137.633 86.1872 136.266 83.5071C135.199 81.4167 134.868 78.9225 135.909 76.8195C141.086 66.3659 151.038 46.2524 152.021 44.284C153.462 41.406 152.546 39.838 151.499 38.791" stroke="black" stroke-width="12" stroke-miterlimit="6"/><path d="M30.562 135.764C35.2907 135.764 39.124 131.937 39.124 127.217C39.124 122.497 35.2907 118.67 30.562 118.67C25.8333 118.67 22 122.497 22 127.217C22 131.937 25.8333 135.764 30.562 135.764Z" stroke="black" stroke-width="12" stroke-linecap="round" stroke-linejoin="round"/><path d="M43.434 129.495L95.2916 129.228C96.8456 129.22 98.3358 128.609 99.4486 127.524L112.518 114.785" stroke="black" stroke-width="10" stroke-miterlimit="6" stroke-linecap="round" stroke-linejoin="round"/></svg>

<svg xmlns="http://www.w3.org/2000/svg" width="192" height="192" fill="none" viewBox="0 0 192 192"><path stroke="#000" stroke-linecap="round" stroke-linejoin="round" stroke-miterlimit="6" stroke-width="12" d="M94.01 159.227a4.623 4.623 0 0 1-.974.091H69.7c-.29 0-.583.024-.873.055-7.484.795-13.162-6.423-13.327-15.762-.861-8.357 2.756-21.898 3.732-26.888.091-.465.234-.91.365-1.365 1.138-3.947-.86-10.855-3.153-11.689-2.107-.768-6.714.664-11.761-3.93a14.438 14.438 0 0 0-.67-.564c-4.941-3.976-5.41-14.618-.527-18.882 4.808-4.782 20.478-20.07 31.465-30.996 10.991-10.926 19.114-13.149 23.16-13.149h22.574c4.978 0 17.24 1.33 28.307 9.268 11.326 8.123 21.261 23.144 21.002 48.79-.118 11.648-2.479 20.261-6.14 26.67-7.075 12.383-18.82 16.285-27.412 16.169a165.227 165.227 0 0 1-8.759-.302 6.563 6.563 0 0 0-5.012 1.842c-5.355 5.251-19.827 18.773-28.661 20.642"/><path stroke="#000" stroke-miterlimit="6" stroke-width="12" d="M151.5 38.79c-1.048-1.046-6.542-4.273-9.679-5.715-3.141-1.437-4.605.186-5.353 1.677-.63 1.256-13.904 27.928-18.082 36.324-.792 1.592-2.263 2.706-3.931 3.32-7.28 2.676-13.605 9-13.605 17.821 0 7.651 3.652 13.897 9.98 17.242l4.596 1.736c1.505.367 3.083.607 4.705.566 10.615-.263 18.486-8.793 18.486-19.807 0-2.568-.984-5.767-2.351-8.447-1.067-2.09-1.398-4.585-.357-6.687 5.177-10.454 15.129-30.568 16.112-32.536 1.441-2.878.525-4.446-.522-5.493"/><path stroke="#000" stroke-linecap="round" stroke-linejoin="round" stroke-width="12" d="M30.562 135.764c4.729 0 8.562-3.827 8.562-8.547 0-4.72-3.833-8.547-8.562-8.547-4.729 0-8.562 3.827-8.562 8.547 0 4.72 3.833 8.547 8.562 8.547"/><path stroke="#000" stroke-linecap="round" stroke-linejoin="round" stroke-miterlimit="6" stroke-width="10" d="m43.434 129.495 51.858-.267a5.999 5.999 0 0 0 4.157-1.704l13.069-12.739"/></svg>
